X: 22197
T: La Boite A Frissons
R: waltz
M: 3/4
K: Aminor
AB cA ec|B2 dB cB|AB cA eA|f4 fe|
de fe fd|B2 AB cd|ed ce dc|B2 dB cB|
AB cA ec|B2 dB cB|AB cA eA|f4 fe|
de fa fd|cB ce dc|BA Bd Bc|1 A2 E4:|2 A2 EA Bc||
|:B2 BA Bd|cB cd ec|dc de fg|e2 e2 e2|
fc Ac fc|ec Gc ec|dA ^FA dA|B2 BA GA|
BA Bc dB|cB cd ec|dc de fg|e2 e2 e2|
fd fa fd|cB ce dc|BA Bd Bc|1 A2 EA Bc:|2 A2 E4||

